X:1
T:Oh Susanna
C:Stephen C. Foster
O:USA
M:2/4
L:1/8
K:C
|:"G7""^VERSES"C/2D/2|"Cmaj7"EG "Dm7"G3/2A/2|"Em7"GE "Am7"CD|"Cmaj7"EE "Am7"DC
w:1~I_ come from Al-a-ba-ma with a ban-jo on my
w:It_ rained all night the day I left, the wea-ther it was
w:2~I_ soon will be~in New Or-leans, and_ then I'll look a-
w:And_ if I do not find her, Then_ I will sure-ly
w:3~I_ had a dream the oth-er night, when ev-ery-thing was
w:A_ buck-wheat cake was in her mouth, a tear was in her
|""Dm7"D3 "Dm7/G"C/2D/2|"Cmaj7"EG "Dm7"G3/2A/2|"Em7"GE "Am7"CD
w:knee, I'm_ going to Loui-si-an-a and my
w:dry, The_ sun so hot, I froze to death, Su-
w:round, And_ when I find Su-san-na, I'll_
w:die, And_ when I'm dead and bur-ied, Su-
w:still, I_ thought I saw Su-san-na, a-_
w:eye, Says_ I, "I'm com-ing from the South. Su-
|""Dm7"EE "Dm7/G"DD|1"Cmaj7"C3:|2"Cmaj7"C2- "Dm7"C2||
w:true love for to see.
w:san-na don't you ||cry.
w:fall up-on the ground.
w:san-na, don't you ||cry.
w:com-ming down the hill.
w:san-na, don't you ||cry.
|:"Fmaj7""^CHORUS"F2 "Dm7"F2|"Dm7"AA-"Dm7/G"AA|"Cmaj7"GG "Am7"EC|"Dm7"D3 "Dm7/G"C/2D/2
w:Oh, Su-san-na, _oh don't you cry for me, I've_
w:Oh, Su-san-na, _oh don't you cry for me, Cause I'm
|"Cmaj7"EG "Dm7"G3/2A/2|"Em7"G E "Am7"CD|"Dm7"EE "Dm7/G"DD|"Cmaj7"C4:||
w:come from  Al-a-ba-ma with a ban-jo on my knee.
w:going to Loui-si-an-a, My_ true love for to see.
